X:2551
T:Henslem's Waltz. JMT035
O:england
M:3/8
L:1/16
Q:60
S:J.Moore,tyneside,1841.(26b)
R:Waltz
A:Northumbria
H:184
K:C
G2|c2ceg2|G2fdB2|c2cege|dBG2AB|c2ceg2|G2fdB2|ceegfd|c4:|
|:ec|G2fdB2|G2gec2|G2fdec|dBG2AB|c2ceg2|G2fdB2|ceegfd|c4:|]
